X: 28043
T: Moxham Castle
R: strathspey
M: 4/4
K: Gmajor
E|D>B,G,>B, G>DB,>D|E<A,E>D E<A,A,>E|D>B,G,>B, G>DB,>D|C<ED>B, G,/G,/G, G,>E|
D>B,G,>B, G>DB,>D|E<A,E>D E<A,A,>c|B<GA>F G>ED>B,|C<ED>B, G,/G,/G, G,>B||
d>BG>B d>ed<B|d>BG>B A<A,A,>B|d>BG>B d>ed<B|c>ed<B G/G/G G>B|
d>BG>B d>ed<B|g>ba<g a2 a>g|b<ga<f g>ed<B|c>ed<B G/G/G G||

